app/assets/img/style/change_ico.svg

<?xml version="1.0" encoding="UTF-8"?>
<svg width="98px" height="90px" viewBox="0 0 98 90" version="1.1" xmlns="http://www.w3.org/2000/svg" xmlns:xlink="http://www.w3.org/1999/xlink">
    <!-- Generator: Sketch 57.1 (83088) - https://sketch.com -->
    <title>Fill 8</title>
    <desc>Created with Sketch.</desc>
    <g id="Page-1" stroke="none" stroke-width="1" fill="none" fill-rule="evenodd">
        <g id="9.7”-iPad" transform="translate(-489.000000, -1957.000000)" fill="#0A0B09">
            <g id="Group-35" transform="translate(31.000000, 1565.000000)">
                <g id="Group-10" transform="translate(433.000000, 359.038000)">
                    <path d="M118.5132,85.7946 L106.3312,85.7946 L106.3312,73.6126 L98.2102,73.6126 L98.2102,85.7946 L86.0282,85.7946 L86.0282,93.9156 L98.2102,93.9156 L98.2102,106.0976 L106.3312,106.0976 L106.3312,93.9156 L118.5132,93.9156 L118.5132,85.7946 Z M88.6802,107.7836 C83.9612,112.4186 78.9772,117.2486 73.8462,122.3406 C47.7372,96.4296 25.1182,77.0766 25.1182,58.1486 C25.1182,41.8866 37.6962,33.0036 50.6242,33.0055997 C59.5422,33.0055997 68.6272,37.2366 73.8462,46.1926 C79.0402,37.2786 88.1452,33.0456 97.0952,33.0456 C109.9992,33.0456 122.5742,41.8606 122.5742,58.1486 C122.5742,63.3006 120.8532,68.4886 117.8862,73.8266 L111.8632,67.8016 C113.5002,64.4086 114.4522,61.1806 114.4522,58.1486 C114.4522,46.4826 105.4552,41.1666 97.0952,41.1666 C83.8712,41.1666 76.8912,55.2756 73.8462,61.5576 C70.8122,55.3016 63.7572,41.1326 50.6202,41.1276 C41.2172,41.1236 33.2392,47.2836 33.2392,58.1486 C33.2392,72.1256 52.4952,90.0216 73.8462,110.9396 C76.9432,107.9056 79.9802,104.9436 82.9392,102.0416 L88.6802,107.7836 Z" id="Fill-8"></path>
                </g>
            </g>
        </g>
    </g>
</svg>

<svg height="90" viewBox="0 0 98 90" width="98" xmlns="http://www.w3.org/2000/svg"><path d="m118.5132 85.7946h-12.182v-12.182h-8.121v12.182h-12.182v8.121h12.182v12.182h8.121v-12.182h12.182zm-29.833 21.989c-4.719 4.635-9.703 9.465-14.834 14.557-26.109-25.911-48.728-45.264-48.728-64.192 0-16.262 12.578-25.145 25.506-25.1430003 8.918 0 18.003 4.2310003 23.222 13.1870003 5.194-8.914 14.299-13.147 23.249-13.147 12.904 0 25.479 8.815 25.479 25.103 0 5.152-1.721 10.34-4.688 15.678l-6.023-6.025c1.637-3.393 2.589-6.621 2.589-9.653 0-11.666-8.997-16.982-17.357-16.982-13.224 0-20.204 14.109-23.249 20.391-3.034-6.256-10.089-20.425-23.226-20.43-9.403-.004-17.381 6.156-17.381 17.021 0 13.977 19.256 31.873 40.607 52.791 3.097-3.034 6.134-5.996 9.093-8.898z" fill="#0a0b09" fill-rule="evenodd" transform="translate(-25 -32.962)"/></svg>
